files/resources/svgs/general/o-inbox.svg

<svg width="24" height="24" viewBox="0 0 24 24" fill="none" xmlns="http://www.w3.org/2000/svg">
<path d="M2.25 13.5H6.10942C6.96166 13.5 7.74075 13.9815 8.12188 14.7438L8.37812 15.2562C8.75925 16.0185 9.53834 16.5 10.3906 16.5H13.6094C14.4617 16.5 15.2408 16.0185 15.6219 15.2562L15.8781 14.7438C16.2592 13.9815 17.0383 13.5 17.8906 13.5H21.75M2.25 13.8383V18C2.25 19.2426 3.25736 20.25 4.5 20.25H19.5C20.7426 20.25 21.75 19.2426 21.75 18V13.8383C21.75 13.614 21.7165 13.391 21.6505 13.1766L19.2387 5.33831C18.9482 4.39423 18.076 3.75 17.0882 3.75H6.91179C5.92403 3.75 5.05178 4.39423 4.76129 5.33831L2.3495 13.1766C2.28354 13.391 2.25 13.614 2.25 13.8383Z" stroke="#0F172A" stroke-width="1.5" stroke-linecap="round" stroke-linejoin="round"/>
</svg>

<svg xmlns="http://www.w3.org/2000/svg" fill="none" viewBox="0 0 24 24" stroke-width="1.5" stroke="currentColor" aria-hidden="true">
  <path stroke-linecap="round" stroke-linejoin="round" d="M2.25 13.5h3.86a2.25 2.25 0 012.012 1.244l.256.512a2.25 2.25 0 002.013 1.244h3.218a2.25 2.25 0 002.013-1.244l.256-.512a2.25 2.25 0 012.013-1.244h3.859m-19.5.338V18a2.25 2.25 0 002.25 2.25h15A2.25 2.25 0 0021.75 18v-4.162c0-.224-.034-.447-.1-.661L19.24 5.338a2.25 2.25 0 00-2.15-1.588H6.911a2.25 2.25 0 00-2.15 1.588L2.35 13.177a2.25 2.25 0 00-.1.661z"/>
</svg>
